!!!OTL: Reiters Trostlied. / b. Einfachere Melodie im Dresdner Cod. M. 53.
!!!ARE: Europa, Mitteleuropa, Deutschland
!!!SCT: A0431B
!!!YEM: Copyright 1995, estate of Helmut Schaffrath.
**kern
*M4/2
*met(c|)
*clefC3
*k[b-]
*G:
=1
2ryy
{2G
2G
2G
=2
2d
2d
2f
2e
=3
1d
2r}
{2d
=4
2d
2d
2f
2d
=5
1.d
4c/
4B-
=6
2c
2c
1B-
=7
2r}
{2d
2d
2d
=8
2c
2c
*lig
4B-
4A
2G
*Xlig
=9
1F
2r}
{2F
=10
2G
2A
2B-
2d
=11
2c
2c
1B-
=12
2r}
{2B-
2d
2e-i
=13
2f
2e-i
4d
4e-
*lig
4f
4e-
=14
1.d}
{4c/
4B-
=15
2A
2G
1A
*Xlig
=16
0G/ll}
==
!!!GTL: Landsknecht- und Reiterlieder
!!!AGN: Romanze, Ballade, Lied, Kriegslied
!! Dresdner Cod. M. 53 (um 1550).
!!!ONB: ESAC (Essen Associative Code) Database: ALTDEU
!!!AMT: simple quadruple
!!!AIN: vox
!!!EED: Helmut Schaffrath
!!!EEV: 1.0
!!!RDF**kern: i = editorial accidental
!!!RDF**kern: l = terminal long
!!!URL-scan: https://rosdok.uni-rostock.de/mcrviewer/recordIdentifier/rosdok_ppn738218359/iview2/phys_0609.iview2?x=-27.342981878423416&y=1740.4930150597356&scale=0.6340035897852&rotation=0&layout=singlePageLayout&logicalDiv=log_0016
!!!ENC: Anna Maria Matuszewska
!!!EEV: 2024/18/03
*-
